src/assets/icons/user-plus.svg

<svg width="14" height="14" viewBox="0 0 14 14" fill="none" xmlns="http://www.w3.org/2000/svg">
<g id="user-plus">
<path id="Vector" fill-rule="evenodd" clip-rule="evenodd" d="M4.46377 4.15945C4.46377 3.15092 5.28134 2.33336 6.28986 2.33336C7.29837 2.33336 8.11594 3.15092 8.11594 4.15945C8.11594 5.16796 7.29837 5.98553 6.28986 5.98553C5.28134 5.98553 4.46377 5.16796 4.46377 4.15945ZM6.28986 1.11597C4.60899 1.11597 3.24638 2.47858 3.24638 4.15945C3.24638 5.84031 4.60899 7.20292 6.28986 7.20292C7.97072 7.20292 9.33333 5.84031 9.33333 4.15945C9.33333 2.47858 7.97072 1.11597 6.28986 1.11597ZM1.21739 12.2754C1.21739 11.6983 1.34702 11.2799 1.55059 10.966C1.75479 10.651 2.06229 10.3967 2.49035 10.1959C3.37356 9.78168 4.67516 9.63771 6.28986 9.63771C7.90455 9.63771 9.20615 9.78168 10.0894 10.1959C10.5174 10.3967 10.8249 10.651 11.0291 10.966C11.2327 11.2799 11.3623 11.6983 11.3623 12.2754C11.3623 12.6116 11.6348 12.8841 11.971 12.8841C12.3072 12.8841 12.5797 12.6116 12.5797 12.2754C12.5797 11.5093 12.405 10.8503 12.0506 10.3037C11.6968 9.75807 11.1927 9.36875 10.6063 9.09371C9.46052 8.55634 7.92154 8.42031 6.28986 8.42031C4.65817 8.42031 3.11919 8.55634 1.97342 9.09371C1.38698 9.36875 0.882888 9.75807 0.529124 10.3037C0.174721 10.8503 0 11.5093 0 12.2754C0 12.6116 0.272522 12.8841 0.608696 12.8841C0.944869 12.8841 1.21739 12.6116 1.21739 12.2754ZM11.971 4.56524C12.3072 4.56524 12.5797 4.83776 12.5797 5.17394V5.98553H13.3913C13.7275 5.98553 14 6.25805 14 6.59423C14 6.9304 13.7275 7.20292 13.3913 7.20292H12.5797V8.01452C12.5797 8.35069 12.3072 8.62321 11.971 8.62321C11.6348 8.62321 11.3623 8.35069 11.3623 8.01452V7.20292H10.5507C10.2146 7.20292 9.94203 6.9304 9.94203 6.59423C9.94203 6.25805 10.2146 5.98553 10.5507 5.98553H11.3623V5.17394C11.3623 4.83776 11.6348 4.56524 11.971 4.56524Z" fill="black"/>
</g>
</svg>

<svg xmlns="http://www.w3.org/2000/svg" fill="none" viewBox="0 0 14 14"><path fill="#000" fill-rule="evenodd" d="M4.464 4.16a1.826 1.826 0 1 1 3.652 0 1.826 1.826 0 0 1-3.652 0M6.29 1.115a3.043 3.043 0 1 0 0 6.087 3.043 3.043 0 0 0 0-6.087m-5.073 11.16c0-.578.13-.996.334-1.31s.511-.57.94-.77c.883-.414 2.184-.558 3.799-.558s2.916.144 3.8.558c.427.2.735.455.94.77.203.314.332.732.332 1.31a.609.609 0 1 0 1.218 0q.001-1.152-.53-1.972c-.353-.546-.857-.935-1.444-1.21-1.145-.538-2.684-.674-4.316-.674s-3.17.136-4.317.674c-.586.275-1.09.664-1.444 1.21Q0 11.124 0 12.275a.609.609 0 1 0 1.217 0m10.754-7.71c.336 0 .609.272.609.608v.812h.811a.609.609 0 1 1 0 1.217h-.811v.812a.609.609 0 1 1-1.218 0v-.812h-.811a.609.609 0 0 1 0-1.217h.811v-.812c0-.336.273-.609.609-.609" clip-rule="evenodd"/></svg>
